X: 380
T: Nocturne No. I.	 Op. 62
C: F. Chopin
%%abc-version 2.0
%%abcx-abcm2ps-target-version 5.9.1 (29 Sep 2008)
%%abc-creator hum2abc beta
%%abcx-conversion-date 2021/10/03 11:23:34
%%abc-edited-by Andrzej Borzym
%%abcx-initial-encoding-date 2020-12-27
%%humdrum-veritas 1010989799
%%humdrum-veritas-data 1779636713
%%linebreak <none>
%%barnumbers 0
L: 1/8
M: C
N: Derived from 062-1-BR-001.krn
P: Deux Nocturnes
Q: "Andante."
%%staves {1 2}
V: 1 clef=treble
V: 2 clef=bass
K: B
[V:1] x8 | 
[V:2] {/C,,2-G,,2-C,2-G,2-B,2-E2-G2-}[e8G8E8B,8G,8C,8G,,8C,,8] | 
[V:1] [c8F8E8] | 
[V:2] [A,8F,,8] | 
[V:1] z4BAGF | 
[V:2] z8 | 
[V:1] d2cB BAGF & D2D2E2{/A}E2 | 
[V:2] x2B,2C2x2 & x3F,2F,3 | 
[V:1] f2f2[f2A2][eGE][dF] & [=A4D4]x4 | 
[V:2] B,,F,B,^B, D^B,,C,[=B,D,] | 
[V:1] dcedd2c3/B/ & x4GF3- | 
[V:2] x2<B,2B,2A,D & E,2x6 | 
[V:1] BAGF[d2F2]cB & [F2E2]E2D2D2 | 
[V:2] C2x2x2B,2 & x2<F,2xF,2x | 
[V:1] BA (3AGF {/D}f2f2 & E2E2[=A4D4] | 
[V:2] C2x6 & x2<F,2x4 | 
[V:1] [f2=A2D2][eG][d=B] dc[dF][BE] & x2E2G2x2 | 
[V:2] x4=B,3B, & E,,^B,CG, E,^E,F,G, | 
[V:1] xG2A A=B2x & D[G^B,]EC FD2[AC] | 
[V:2] F, zF,,2[F,2F,,2B,,,2]D,,^^F, | 
[V:1] z2z dd2e2 & AG^^F^F EG2A | 
[V:2] G,,D,^A,[^B,G,] C,G,CG, | 
[V:1] (3:2:7x x x/ [d/A/] d2z/d/!turn!d2f3/e/ & (3:2:8cBz/A/ AGz/F/ EGGA | 
[V:2] G,,D,B,G,, C,G,EC, | 
[V:1] d2d>^e ef ^^F/G/c/B/ & cBAG cF2D | 
[V:2] G,,D,C,B, A,,CB,,F, | 
[V:1] [AFDB,]d/c/ A/c/[G/D/B,/]c/F2[AFC][^BFD] & x4[DB,][CA,]x2 | 
[V:2] .C,,C,[B,^E]C, F,,F,D,G, | 
[V:1] cG {/G}g2-gde3/f/ & EG2G FG^BG | 
[V:2] C,,G,EG, G,,G,[FD]G, | 
[V:1] e2dec2e2 & cGFG EGcG | 
[V:2] C,G,[^B,G,,]G, [CC,]G,A,,C | 
[V:1] d2>c2 BAGB & CD^^FD GDB,D | 
[V:2] D,,D,A,D, G,,D,G,D, | 
[V:1] AcABG2B2- & ^^FDCD GEB,E | 
[V:2] D,,D,^^F,D, D,,^^C,G,C, | 
[V:1] BAdc [BG][AD][GB,][BD] & ^^FDCDx4 | 
[V:2] D,,D,^^F,D, G,,D,G,^E, | 
[V:1] [AF][GD][AA,][BD]G2B2 & x4^EDB,D | 
[V:2] D,,D,F,D, D,,D,G,D, | 
[V:1] [AFA,] za2a2g/f/^e/g/ | 
[V:2] x4[^^C4D,4] & D,,!accent!A,2A, zA,2A, | 
[V:1] f/^e/d/f/ e/d/c/e/ d/c/B/A/ B/c/d/G/ | 
[V:2] [D4F,4D,4][D4G,4D,4] & zA,2A, zB,2B, | 
[V:1] A za2-a/ba/ (5:4:5g/f/g/a/^e/ | 
[V:2] [D4F,4D,4][^^C4D,4] & zA,2A, zA,2A, | 
[V:1] g/f/g/d/ f/^e/f/c/ e/d/e/B/ d/A/d/G/ | 
[V:2] [D4F,4D,4][D4G,4D,4] & zA,2A, zB,2B, | 
[V:1] A2z2z f/^e/ d/A/d/G/ | 
[V:2] [D4F,4D,4][D4G,4D,4] & zA,2A, zB,2B, | 
[V:1] A2z2(41:32:41B/8c/8d/8^e/8f/8g/8a/8b/8c'/8d'/8^e'/8f'/8g'/8a'/8b'/8c''/8^e''/8d''/8c''/8b'/8a'/8g'/8f'/8e'/8d'/8c'/8b/8a/8g/8f/8e/8d/8c/8B/8A/8G/8F/8^E/8D/8C/8B,/8 | 
[V:2] [D4F,4D,4]DEFB, & zA,2A,[G,4D,4] | 
[V:1] A,6(3DFd/ | 
[V:2] [F,4A,,4D,,4]z4 | 
[V:1] d4-d2cB- | 
[V:2] z8 | 
[V:1] BAGFd2cB & E4D2D2 | 
[V:2] x2<F,2x4 & F,,F,B,A, B,,F,B,F, | 
[V:1] BA{/A}GFf2f2 & E2E2[=A4D4] | 
[V:2] x2<F,2x4 & C2x6 | 
[V:1] x2[eGE][dF] dced & [f2=A2]x2E2G2 | 
[V:2] D^B,,C,D, G,B,E,[^E,B,] & x2x=B,2B,2x | 
[V:1] d2c>B BA(3GAF & GF2xx4 | 
[V:2] B,2A,DC2x2 & x4xF,3 | 
[V:1] d2cB B/A/d/c/ G/A/G/F/ & D2D2E2E2 | 
[V:2] x4C2x2 & B,,,F,B,F, CF,B,A, | 
[V:1] {/D}f2f2!fermata![f4=A4D4] | 
[V:2] B,,,B,,F,B,x4 | 
[V:1] [f2=A2D2][eGE][dG] dcd3/B/ & x4G2F2 | 
[V:2] x4B,3G, & z ^B,,[CC,][B,D,]E,2D,2 | 
[V:1] BABG[D2^B,2][^c2^^F2A,2] & E4x4 | 
[V:2] [G,2C,2]>[B,2^^C,2]D,2D,,2 | 
[V:1]  [K:Ab] c4B7/c/ | 
[V:2]  [K:Ab] E,,[D2G,2][D2G,2]!accent!E,2E,, | 
[V:1] A4A7/G/ | 
[V:2] A,,,[C2A,2E,2][C2A,2E,2][C2A,2=E,2]A,, | 
[V:1] G4F>=ABc | 
[V:2] A,,,[D2B,2F,2][DB,F,] z!accent!_A,,2D,, | 
[V:1] d4f4 | 
[V:2] A,,,[D2B,2F,2][DB,F,] z!accent!A,,2D,, | 
[V:1] E4dcBc | 
[V:2] G,,,[D2B,2E,2][D2B,2E,2]!accent!E,2E,- | 
[V:1] A4F4 | 
[V:2] [E,A,,][C2A,2F,2][C2A,2E,2][C2A,2=D,2][CA,E,]- | 
[V:1] E4ABgf- | 
[V:2] x4[=D4B,4] & [CA,E,]E,,2[CE,] E,!accent!E,2E, | 
[V:1] fGf4e_d | 
[V:2] [E4B,4]x4 & E,!accent!E,2E, [_DG,E,]E, z E,, | 
[V:1] c4-cdFd | 
[V:2] =E,,[B,2G,2C,2][B,G,C,] [B,F,C,][B,2F,2C,2]F,, | 
[V:1] =Edc2_E=Ace | 
[V:2] G,,[B,2G,2C,2][B,G,C,] [=A,G,C,][A,2G,2C,2]G,, | 
[V:1] =d4-deGe | 
[V:2] ^F,,[C2=A,2=D,2][CA,D,] [CG,D,][C2G,2D,2]G,, | 
[V:1] ^Fe=d2=F=Bdf | 
[V:2] =A,,[C2=A,2=D,2][CA,D,] [=B,A,D,][B,2A,2D,2]A,, | 
[V:1] =e4-e=fc=d | 
[V:2] ^G,,[=D2=E,2][DE,] =A,,[C2E,2][CE,] | 
[V:1] =e2=B2!trill!^c4{/^Bc} | 
[V:2] ^G,,[=E2=B,2=E,2][EB,E,] =G,,[E2_B,2E,2][EB,E,] | 
[V:1] =degf deBc | 
[V:2] F,,[F2B,2F,2][FB,F,] [E=A,F,][E2A,2F,2][EA,F,] | 
[V:1] =d2=A2!trill!=B2!trill!_c2{/_Bc} | 
[V:2] F,,[=D2=A,2F,2][DA,F,] [D_A,F,][D2A,2F,2][DA,_F,] | 
[V:1] =c4B7/c/ | 
[V:2] x4_D2x2 & .E,,[E2A,2E,2][=DA,E,] [A,E,][G,=E,] z =E,, | 
[V:1] B=A_A2GBA_G | 
[V:2] .F,,[C2F,2C,2][=B,F,C,] [_B,F,C,][=E,C,] z C,, | 
[V:1] =E4F=AB3/c/ | 
[V:2] .D,,[A,2F,2][_E=A,F,] [DB,F,]!accent!D,,2C,, | 
[V:1] d4f4 | 
[V:2] .B,,,F,2[CF,D,] [B,F,D,]!accent!B,,,2A,,, | 
[V:1] E4dcBc | 
[V:2] .G,,,[D2B,2E,2][D2B,2E,2]!accent!E,2E, | 
[V:1] A4F4 | 
[V:2] A,,[C2A,2E,2][CA,E,] zC,,2D,, | 
[V:1] E4dcBc | 
[V:2] E,,[C2A,2E,2][CA,F,] [DG,E,]!accent!E,2E, | 
[V:1] A4=d4 | 
[V:2] [C4A,4][_C4A,4] & E,!accent!E,2F, E,!accent!E,2E, | 
[V:1] =d4-de2e | 
[V:2] E,,B,,G,_C B,G,E2 | 
[V:1] f4b3b & e2_d4x2 | 
[V:2] E,,A,,F,B, A,F,[A2D2] | 
[V:1] c'bge2<d2d | 
[V:2] E,,B,,E,F, G,E,[G2B,2] | 
[V:1] d2c3a2a | 
[V:2] E,,A,,E,A, _G,E,[_G2C2G,2] | 
[V:1] a2_c4c2 | 
[V:2] E,,A,,E,F, _G,E,[_G2_C2G,2] | 
[V:1] _c4B3F | 
[V:2] z E,,E,A, _G,E, [=DB,F,] z | 
[V:1] z2z z/ e/!fermata!!trill!e4 & =G8 | 
[V:2] [B,4E,4]!fermata!z4 | 
[V:1]  [K:B] !trill!d6{/!trill!c} !trill!c{/!trill!B}!trill!B & F8 | 
[V:2]  [K:B] F6ED & z8 | 
[V:1] !trill!B{/!trill!A}!trill!A{/!trill!G}!trill!G{/!trill!F}F {/D2d2}!trill!d2{/!trill!c} !trill!c{/!trill!B}!trill!B & E2x6 | 
[V:2] x2E2x4 & x2<F,2x4 | 
[V:1] !trill!B{/!trill!A}!trill!A{/!trill!G}!trill!G{/!trill!F}F {/D2=A2f2}!trill!f2!trill!f2 | 
[V:2] E2E2xB,2x & x2<F,2x4 | 
[V:1] f2{/G2e2} !trill!e{/!trill!d}!trill!d (15:8:30d//^^F//G//A//G//F//G//A//B//c//d//=e//^f//g//a//b//c'//d'//e'//f'//g'//a'//b'//g'//e'//c'//b//g//e//d// & x2{/G2} | 
[V:2] [=AD^B,]^B,,[EG,C,][FB,G,D,] E,, CEG, & x4x[G,3E,3] | 
[V:1] !trill!c2>{/!trill!B} !trill!B2 !trill!B{/!trill!A}!trill!A{/!trill!G}!trill!G{/!trill!F}F | 
[V:2] x2E2E4 & xF,4F,3 | 
[V:1] {/D2d2 d2}!trill!d2{/^^c2d2e2d2g2f2} (3:2:12^B//^c//d//c//g//f// A//=B//c//B//g//f// {/B} !trill!B{/!trill!A}!trill!A{/!trill!G}!trill!G{/!trill!F}F | 
[V:2] B,,, FEDE4 & x4CF,B,A, | 
[V:1] {/D2=A2} f/g//f// (3:2:6g//f//g//f//g//f//!trill!f2!trill!f4 | 
[V:2] x3B,4x & B,,,B,[=AD]B,2<[A2D2]z | 
[V:1] !trill!f2!trill!f2{/^e2f2=g2f2=a2g2f2}f2!fermata!z2 | 
[V:2] .[=A2=D2=C2].[A2D2C2].[A2D2C2]!fermata!z2 | 
[V:1] f=ge=f =c[=dF][^d^F][BE] & =A=G2=F2x3 | 
[V:2] =D2C3=B,2B, & =CB,_B,=A, _A,=G,F,^G, | 
[V:1] DG2A2=Bdc & D^B,EC FDEG | 
[V:2] F, zz2z4 | 
[V:1] AB2c2dfe & [FE]DGE AFGB | 
[V:2] z8 | 
[V:1] [cA]d2e [dA][^^fc^^F]{/G}[aBG][g^^c] & GFBEx2G2 | 
[V:2] z2G,C, ^^F,[DD,][^^CE,][B,^E,] & x2xC2x3 | 
[V:1] [cA][d=A]e^A- [A^^F][^B^F][d^E][c=E] & x2G2x4 | 
[V:2] FB,2C DG,2x & F,2E,2D,2C,[A,F,,] | 
[V:1] [BD] z b>^a =a/g/f/a/ g/f/e/g/ | 
[V:2] [B,F,B,,]!accent!F,2F, [FDB,]F,2F, | 
[V:1] f/e/d/f/ e/d/c/e/ d/c/B/=A/ B/c/d/A/ | 
[V:2] B,,,!accent!F,2F, [FDB,]F,2F, | 
[V:1] G/=A/B/c/ d/e/f/^^f/ g/c'/b/d'/ e'/^^f'/g'/^a'/ | 
[V:2] B,,!accent!G,2G, [GEB,]G,2G, | 
[V:1] b'/d''/c''/b'/ g'/e'/c'/b/ g/e/c/B/ G/E/C/G,/ | 
[V:2] x3F,2x3 & B,,,F,2F, EF,z2 | 
[V:1] F,/D/F/d< b^a/ =a/=g/f/a/ g/f/e/g/ | 
[V:2] B,,,!accent!F,2F, [FDB,]F,2F, | 
[V:1] f/e/d/=g/ f/e/d/e/ d/=c/B/=A/ B/c/F/B/ | 
[V:2] B,,!accent!F,2F, [FDB,]F,2F, | 
[V:1] =G/^A/B/c/ d/e/f/=g/ ^a/=c'/b/d'/ e'/f'/=g'/^a'/ | 
[V:2] B,,,!accent!=G,2G, [=GEB,]G,2G, | 
[V:1] ^b'/d''/c''/=b'/ ^g'/e'/c'/b/ g/e/c/B/ ^G/E/C/F,/ | 
[V:2] .=B,,!accent!F,2F, EF,2F, | 
[V:1] d4-d/e/d/c/ d/e/f/F/ | 
[V:2] .B,,,!accent!F,2F, [FDB,]F,2F, | 
[V:1] d4-d/e/d/c/ d/e/f/B/ | 
[V:2] .B,,!accent!F,2F,[K:clef=treble] F!accent!G2F & x4[D4B,4] | 
[V:1] [b2d2]z2[D2B,2F,2]D/F/E3//D// | 
[V:2] [D2B,2F,2]z2[K:clef=bass]x2[A,2F,2] & x4B,,2E,,2 | 
[V:1] [D4B,4F,4][D2B,2F,2]D/F/E3//D// | 
[V:2] x6[B,2G,2] & B,,4B,,2E,,2 | 
[V:1] [D2B,2F,2]D/B/F/>D/[D2B,2F,2][C2A,2F,2] | 
[V:2] B,,2z2F,,2F,,,2 | 
[V:1] [D2B,2F,2]z2z4 |]  
[V:2] B,,,2z2z4 |]
